icons/fm-user-circle.svg

<svg
  viewBox="0 0 16 16"
  xmlns="http://www.w3.org/2000/svg"
>
  <path
    d="m 8.0000033,-7.9456621e-6 c -4.41156,0 -7.97243568,3.5760500456621 -7.9876121,7.9876100456621 -0.01517648,4.4051899 3.5800521,8.0035899 7.9876121,8.0123899 4.4075397,0.0088 7.9956397,-3.6384 7.9876397,-8.0123899 -0.008,-4.41156 -3.5761,-7.9876100456621 -7.9876397,-7.9876100456621 z m 0,1.5975200456621 c 3.5289397,0 6.3900397,2.86116 6.3900397,6.39009 0,1.79721 -0.7484,3.4170899 -1.9425,4.5784899 -0.5887,-1.2724 -1.8516,-2.1822 -3.2997097,-2.1822 -0.28676,0 -2.00889,0 -2.29644,0 -1.44576,0 -2.7062,0.8986 -3.29489,2.1718 -1.19335,-1.1614 -1.94659,-2.7708799 -1.94659,-4.5680899 0,-3.52893 2.86116,-6.39009 6.39009,-6.39009 z m 0,1.59752 c -1.76446,0 -3.19505,1.43058 -3.19505,3.19505 0,1.76446 1.43059,3.19504 3.19505,3.19504 1.76446,0 3.1950397,-1.43058 3.1950397,-3.19504 0,-1.76447 -1.4305797,-3.19505 -3.1950397,-3.19505 z m 0,1.59753 c 0.88263,0 1.59752,0.71489 1.59752,1.59752 0,0.88263 -0.71489,1.59752 -1.59752,1.59752 -0.88263,0 -1.59752,-0.71489 -1.59752,-1.59752 0,-0.88263 0.71489,-1.59752 1.59752,-1.59752 z m -1.14861,7.1888299 c 0.28755,0 2.00968,0 2.29644,0 0.8914097,0 1.6981097,0.6502 1.9809097,1.5664 -1.1406297,0.6733 -2.4146497,0.8299 -3.1287397,0.8299 -0.73326,0 -1.94978,-0.1645 -3.11916,-0.8091 0.28036,-0.9242 1.08712,-1.5872 1.97055,-1.5872 z"
  />
</svg>

<svg
  viewBox="0 0 16 16"
  xmlns="http://www.w3.org/2000/svg"
>
  <path
    d="M7.98766 0C3.5761 0 0.0152243 3.57605 4.78722e-05 7.98761C-0.0151286 12.3928 3.5801 15.9912 7.98766 16C12.3952 16.0088 15.9833 12.3616 15.9753 7.98761C15.9673 3.57605 12.3992 0 7.98766 0ZM7.98766 1.59752C11.5166 1.59752 14.3777 4.45868 14.3777 7.98761C14.3777 9.78482 13.6293 11.4047 12.4352 12.5661C11.8465 11.2937 10.5836 10.3839 9.13549 10.3839C8.84873 10.3839 7.1266 10.3839 6.83905 10.3839C5.39329 10.3839 4.13285 11.2825 3.54416 12.5557C2.35081 11.3943 1.59757 9.78482 1.59757 7.98761C1.59757 4.45868 4.45873 1.59752 7.98766 1.59752ZM7.98766 3.19504C6.2232 3.19504 4.79261 4.62562 4.79261 6.39009C4.79261 8.15455 6.2232 9.58513 7.98766 9.58513C9.75212 9.58513 11.1827 8.15455 11.1827 6.39009C11.1827 4.62562 9.75212 3.19504 7.98766 3.19504ZM7.98766 4.79257C8.87029 4.79257 9.58518 5.50746 9.58518 6.39009C9.58518 7.27272 8.87029 7.98761 7.98766 7.98761C7.10503 7.98761 6.39014 7.27272 6.39014 6.39009C6.39014 5.50746 7.10503 4.79257 7.98766 4.79257ZM6.83905 11.9814C7.1266 11.9814 8.84873 11.9814 9.13549 11.9814C10.0269 11.9814 10.8336 12.6316 11.1164 13.5478C9.97577 14.2211 8.70175 14.3777 7.98766 14.3777C7.2544 14.3777 6.03788 14.2132 4.8685 13.5686C5.14886 12.6444 5.95562 11.9814 6.83905 11.9814Z"
  />
</svg>
